packages/core/src/svgs/tokens/mono/AURABAL.svg

<svg width="24" height="24" viewBox="0 0 24 24" fill="none" xmlns="http://www.w3.org/2000/svg">
<path d="M19.5333 7.77137V7.75231C19.5333 7.11422 17.8619 6.55708 15.419 6.28564C16 6.67612 16.5143 7.1666 16.9429 7.73327L17.0381 7.75231L16.9714 7.7666C15.3481 8.07021 13.699 8.21376 12.0477 8.19518C10.0952 8.19518 8.35238 8.02851 7.10952 7.7666L7.07619 7.75708H7.05238L7.13333 7.73803C7.5619 7.1666 8.08096 6.68089 8.65715 6.28564C6.22857 6.55708 4.55714 7.11422 4.55714 7.75231C4.55714 8.55708 8.18096 9.19041 10.6286 9.37138C11.1714 9.40949 12.0286 9.40949 12.0286 9.40949C12.3333 9.42371 12.8857 9.40949 13.4286 9.37138C15.8857 9.19993 19.5 8.5666 19.5333 7.77137ZM18.819 11.157C18.6418 11.1195 18.464 11.0846 18.2857 11.0523C18.2333 10.6143 18.1381 10.1904 18.0096 9.7856C20.4286 10.1809 22 10.8095 22 11.5237V11.5476C21.9429 12.738 17.4857 13.6999 12 13.6999C6.47619 13.6999 2 12.7237 2 11.5237V11.4999C2.03333 10.7904 3.62857 10.1666 6.07619 9.77138C5.94762 10.1762 5.85238 10.5999 5.8 11.0333C5.35201 11.1168 4.90727 11.2169 4.46667 11.3333C4.2381 11.3952 4.03333 11.4618 3.85238 11.5237C4.46718 11.7382 5.09982 11.8976 5.74286 11.9999C7.4 12.3095 9.58571 12.4999 12 12.4999C14.2889 12.5173 16.5742 12.3132 18.8238 11.8904C19.3571 11.7714 19.8 11.6476 20.1477 11.5237C19.8 11.3999 19.3571 11.2762 18.8238 11.157H18.819ZM6.44762 14.9762C5.27143 15.2666 4.55714 15.6523 4.55714 16.0714V16.0952C4.61904 16.9904 7.95238 17.7143 12.0477 17.7143C16.1429 17.7143 19.4762 16.9904 19.5333 16.0952V16.0714C19.5333 15.6476 18.819 15.2618 17.6333 14.9762C17.4429 15.357 17.2238 15.7189 16.9714 16.057L17.0429 16.0714L16.9477 16.0904H16.9286C15.6904 16.3476 13.9714 16.5143 12.0477 16.5143C10.1238 16.5143 8.40477 16.3476 7.1619 16.0952H7.1381L7.13333 16.0856C7.10477 16.0856 7.07619 16.0762 7.05238 16.0714L7.10952 16.057C6.85714 15.7237 6.63333 15.3618 6.44762 14.9762Z" fill="white"/>
</svg>

<svg xmlns="http://www.w3.org/2000/svg" width="24" height="24" fill="none" viewBox="0 0 24 24">
    <path fill="#fff" d="M19.533 7.771v-.019c0-.638-1.671-1.195-4.114-1.466.581.39 1.095.88 1.524 1.447l.095.02-.067.014a25 25 0 0 1-4.923.428c-1.953 0-3.696-.166-4.938-.428l-.034-.01h-.024l.081-.019a6.5 6.5 0 0 1 1.524-1.452c-2.428.271-4.1.828-4.1 1.466 0 .805 3.624 1.438 6.072 1.62.542.037 1.4.037 1.4.037.304.015.857 0 1.4-.038 2.457-.171 6.071-.804 6.104-1.6m-.714 3.386a19 19 0 0 0-.533-.105 7 7 0 0 0-.276-1.266c2.419.395 3.99 1.024 3.99 1.738v.024c-.057 1.19-4.514 2.152-10 2.152-5.524 0-10-.976-10-2.176V11.5c.033-.71 1.629-1.333 4.076-1.729a7 7 0 0 0-.276 1.262 19 19 0 0 0-1.333.3 10 10 0 0 0-.615.19c.615.215 1.248.375 1.89.477 1.658.31 3.844.5 6.258.5a35.5 35.5 0 0 0 6.824-.61q.8-.18 1.324-.366-.522-.187-1.324-.367zm-12.371 3.82c-1.177.29-1.89.675-1.89 1.094v.024c.061.895 3.394 1.62 7.49 1.62 4.095 0 7.428-.725 7.485-1.62v-.024c0-.423-.714-.81-1.9-1.095q-.285.573-.662 1.081l.072.014-.095.02h-.02c-1.238.257-2.957.423-4.88.423s-3.643-.166-4.886-.419h-.024l-.005-.01c-.028 0-.057-.009-.08-.014l.057-.014a6.4 6.4 0 0 1-.662-1.08"/>
</svg>
